X:1
T:The Crooket Horned Ewie
L:1/8
M:4/4
I:linebreak $
K:A
V:1 treble 
V:1
 E/ |"A" E<A A>B"E" G>A B>G |"A" E<A A>c"E" d>B"A" c>A |"D" d>c B>A"E" G>A B>G | %4
"A" E<A A>c"E" B>G"A" A3/2 :: d/ |$"A" c<e e>f"E" d>e d>B |"A" c>e e>f =g>e a2 | %8
"G" =g>a ge dB =G>B |"A" E<A A>c"E" B>G"A" A3/2 :| %10
